X:109
T:La Galop de Malbaie
R:reel
M:4/4
L:1/8
K:D
DFAd f2df | egec dBAG | FAFA GBGB | FAFA EGFE |
DFAd f2 df | egec dBAG | FAFA GBGB | Acec d2 z2 ::
Acef gf ge | defg a2 a2 | Acef gfgb | afge fd cB |
Acef gfge | defg afge | fdec dBAG | FABc d2 z2 :|
